apps/ui-icons/svgs/ledger.svg

<svg viewBox="0 0 24 24" width="24" height="24"  fill="none" xmlns="http://www.w3.org/2000/svg">
<path d="M3 6C3 4.89543 3.89543 4 5 4H8C8.55228 4 9 4.44772 9 5C9 5.55228 8.55228 6 8 6H5V9C5 9.55228 4.55228 10 4 10C3.44772 10 3 9.55228 3 9V6Z" fill="#171D26"/>
<path d="M3 18C3 19.1046 3.89543 20 5 20H8C8.55228 20 9 19.5523 9 19C9 18.4477 8.55228 18 8 18H5V15C5 14.4477 4.55228 14 4 14C3.44772 14 3 14.4477 3 15V18Z" fill="#171D26"/>
<path d="M19 4C20.1046 4 21 4.89543 21 6V9C21 9.55228 20.5523 10 20 10C19.4477 10 19 9.55228 19 9V6H16C15.4477 6 15 5.55228 15 5C15 4.44772 15.4477 4 16 4H19Z" fill="#171D26"/>
<path d="M21 18C21 19.1046 20.1046 20 19 20H16C15.4477 20 15 19.5523 15 19C15 18.4477 15.4477 18 16 18H19V15C19 14.4477 19.4477 14 20 14C20.5523 14 21 14.4477 21 15V18Z" fill="#171D26"/>
<path d="M12 14V9C12 8.44772 11.5523 8 11 8C10.4477 8 10 8.44772 10 9V14C10 15.1046 10.8954 16 12 16H14C14.5523 16 15 15.5523 15 15C15 14.4477 14.5523 14 14 14H12Z" fill="#171D26"/>
</svg>

<svg xmlns="http://www.w3.org/2000/svg" width="24" height="24" fill="none" viewBox="0 0 24 24">
  <path fill="#171D26" d="M3 6a2 2 0 0 1 2-2h3a1 1 0 0 1 0 2H5v3a1 1 0 0 1-2 0V6Zm0 12a2 2 0 0 0 2 2h3a1 1 0 1 0 0-2H5v-3a1 1 0 1 0-2 0v3ZM19 4a2 2 0 0 1 2 2v3a1 1 0 1 1-2 0V6h-3a1 1 0 1 1 0-2h3Zm2 14a2 2 0 0 1-2 2h-3a1 1 0 1 1 0-2h3v-3a1 1 0 1 1 2 0v3Zm-9-4V9a1 1 0 1 0-2 0v5a2 2 0 0 0 2 2h2a1 1 0 1 0 0-2h-2Z"/>
</svg>
